X: 1
T: Y'did nefesh
C: S and E Zweig
Z: 1998 by John Chambers <jc@trillian.mit.edu> http://trillian.mit.edu/~jc/music/
M: 3/4
L: 1/8
K: Dm
|: "Dm"D4 D2 | (A,2 D2) F2 | "G"G3 FGF |1 "Gm"(G4 F2) :|2 G4 z2 |
w: Y'-did     ne-*fesh     av~~ ha-ra-cha-man,* \-man
| "A7"G4 G2 | (G2 F2) E2 | "Dm"F6- | F4 z2 | "Gm"G4 G2 | "C7"(G2 F2) E2 | "F"A6- | "D7"A4 z2 |
w:  m'-shoch    `av-*d'-cha*  el r'-tzo-*ne-cha
| "Gm"G4 G2 | "A7"(G2 F2) E2 | "Dm"F3 DFG | A2 G2 F2 | "Gm"G4 G2 | "A7"(G2 F2) E2 | "Dm"D6- | D4 z2 ||
w: m'-shoch `av-*d'-cha (la la la la la la) el r'-tzo-*ne-cha
|: "Gm"(B4 A2) | (B4 A2) | "C7"A4 G2 | "F"F6 | "Gm"(B4 A2) | "C7"(d2 c2 B2) | "F"A3 GAG | "Bb"F6 |
w: Ya-*rutz* av-d'-cha k'-*mo** a-***yal
w: Ye-*`e-*-rav lo y'-*di-*do- te-***cha
| "Gm"G2 G2 G2 | "A7"(G2 F2) E2 | "Dm"F3 DFG | A2 G2 F2 | "Gm"G2 G2 G2 | "A7"(G2 F2) E2 | "Dm"D6- | D4 z2 :|
w: yish-ya-cha-ve* (la la la la la la la la) el mul ha-da-*re-cha.
w: mi-ho-fet tzuf* (la la la la la la la la) v'-*chol  ta-*-`am.
